src/icons/disc.svg

<?xml version="1.0" encoding="UTF-8"?>
<svg width="512px" height="512px" viewBox="0 0 512 512" version="1.1" xmlns="http://www.w3.org/2000/svg" xmlns:xlink="http://www.w3.org/1999/xlink">
    <!-- Generator: Sketch 62 (91390) - https://sketch.com -->
    <title>disc</title>
    <desc>Created with Sketch.</desc>
    <g id="disc" stroke="none" stroke-width="1" fill="none" fill-rule="evenodd">
        <path d="M256,152.35 C202.3,152.35 158.8,195.85 158.8,249.55 C158.8,303.25 202.3,346.65 256,346.65 C309.7,346.65 353.2,303.15 353.2,249.55 C353.2,195.85 309.7,152.35 256,152.35 Z M256,292.95 C232,292.95 212.5,273.45 212.5,249.45 C212.5,225.45 232,205.95 256,205.95 C280,205.95 299.5,225.45 299.5,249.45 C299.5,273.45 280,292.95 256,292.95 Z" id="Shape" fill="#000000" fill-rule="nonzero"></path>
        <path d="M256,25.5 C132.3,25.5 32,125.8 32,249.5 C32,373.2 132.3,473.5 256,473.5 C379.7,473.5 480,373.2 480,249.5 C480,125.8 379.7,25.5 256,25.5 Z M256,372.3 C188.2,372.3 133.2,317.3 133.2,249.5 C133.2,181.7 188.2,126.7 256,126.7 C323.8,126.7 378.8,181.7 378.8,249.5 C378.8,317.3 323.8,372.3 256,372.3 Z" id="Shape" fill="#000000" fill-rule="nonzero"></path>
    </g>
</svg>

<svg xmlns="http://www.w3.org/2000/svg" width="512" height="512" viewBox="0 0 512 512">
    <path d="M256 152.35c-53.7 0-97.2 43.5-97.2 97.2s43.5 97.1 97.2 97.1 97.2-43.5 97.2-97.1c0-53.7-43.5-97.2-97.2-97.2zm0 140.6c-24 0-43.5-19.5-43.5-43.5s19.5-43.5 43.5-43.5 43.5 19.5 43.5 43.5-19.5 43.5-43.5 43.5z"/>
    <path d="M256 25.5c-123.7 0-224 100.3-224 224s100.3 224 224 224 224-100.3 224-224-100.3-224-224-224zm0 346.8c-67.8 0-122.8-55-122.8-122.8s55-122.8 122.8-122.8 122.8 55 122.8 122.8-55 122.8-122.8 122.8z"/>
</svg>
